images/advantages-img2.svg

<svg width="51" height="44" viewBox="0 0 51 44" fill="none" xmlns="http://www.w3.org/2000/svg">
<path d="M13.3579 2.48195V8.95762H17.8453V4.4963H32.1583V8.95762H36.6457V2.48195C36.6457 1.11125 35.5367 0.00012207 34.1687 0.00012207H15.835C14.4669 0.000219726 13.3579 1.11135 13.3579 2.48195Z" fill="#74C6FF"/>
<path d="M45.2764 7.98108H4.72743C2.12177 7.98108 0.00195312 10.101 0.00195312 12.7066V39.1165C0.00195312 41.7242 2.12021 43.8457 4.72392 43.8457H45.28C47.8837 43.8457 50.002 41.7242 50.002 39.1165V12.7066C50.0019 10.101 47.882 7.98108 45.2764 7.98108ZM48.0487 39.1165C48.0487 40.6472 46.8066 41.8925 45.2799 41.8925H4.72392C3.19716 41.8925 1.95507 40.6472 1.95507 39.1165V26.7743C3.31201 28.2528 5.25946 29.181 7.41971 29.181H10.289C10.8284 29.181 11.2656 28.7438 11.2656 28.2045C11.2656 27.6651 10.8284 27.2279 10.289 27.2279H7.41971C4.40653 27.228 1.95507 24.7766 1.95507 21.7634V12.7067C1.95507 11.1779 3.19872 9.9343 4.72743 9.9343H45.2764C46.8051 9.9343 48.0487 11.1779 48.0487 12.7067V21.7634C48.0487 24.7767 45.5973 27.228 42.5841 27.228H39.162C38.6227 27.228 38.1855 27.6652 38.1855 28.2046C38.1855 28.7439 38.6227 29.1811 39.162 29.1811H42.5841C44.7443 29.1811 46.6918 28.2529 48.0487 26.7744V39.1165Z" fill="#00A9DD"/>
<path d="M35.7461 27.228H14.3782C13.8388 27.228 13.4016 27.6652 13.4016 28.2046C13.4016 28.7439 13.8388 29.1811 14.3782 29.1811H35.7462C36.2856 29.1811 36.7228 28.7439 36.7228 28.2046C36.7228 27.6652 36.2855 27.228 35.7461 27.228Z" fill="#00A9DD"/>
<path d="M36.5854 13.2047H13.4185C12.8791 13.2047 12.4419 13.6419 12.4419 14.1812C12.4419 14.7206 12.8791 15.1578 13.4185 15.1578H36.5853C37.1247 15.1578 37.5619 14.7206 37.5619 14.1812C37.562 13.6419 37.1248 13.2047 36.5854 13.2047Z" fill="#00A9DD"/>
<path d="M34.6128 23.0862H40.558V32.3463H34.6128V23.0862Z" fill="#74C6FF"/>
<path d="M9.44604 23.0862H15.3912V32.3464H9.44604V23.0862Z" fill="#74C6FF"/>
</svg>

<svg xmlns="http://www.w3.org/2000/svg" width="51" height="44" fill="none" xmlns:v="https://vecta.io/nano"><path d="M13.358 2.482v6.476h4.487v-4.46h14.313v4.46h4.487V2.482A2.48 2.48.0 0 0 34.169.0H15.835a2.48 2.48.0 0 0-2.477 2.482z" fill="#74c6ff"/><path d="M45.276 7.98H4.727C2.122 7.98.002 10.1.002 12.707v26.4c0 2.608 2.118 4.73 4.722 4.73H45.28a4.73 4.73.0 0 0 4.722-4.73v-26.4c0-2.606-2.12-4.726-4.726-4.726zm2.772 31.135c0 1.53-1.242 2.776-2.77 2.776H4.724c-1.527.0-2.77-1.245-2.77-2.776v-12.34a7.4 7.4.0 0 0 5.465 2.407h2.87c.54.0.977-.437.977-.977s-.437-.977-.977-.977H7.42a5.47 5.47.0 0 1-5.465-5.465v-9.057c0-1.53 1.244-2.772 2.772-2.772h40.55c1.53.0 2.772 1.244 2.772 2.772v9.057a5.47 5.47.0 0 1-5.465 5.465h-3.422c-.54.0-.977.437-.977.977s.437.977.977.977h3.422a7.4 7.4.0 0 0 5.465-2.407v12.342zM35.746 27.228H14.378c-.54.0-.977.437-.977.977s.437.977.977.977h21.368c.54.0.977-.437.977-.977s-.437-.977-.977-.977zm.84-14.023H13.42c-.54.0-.977.437-.977.976s.437.977.977.977h23.167c.54.0.977-.437.977-.977s-.437-.976-.977-.976z" fill="#00a9dd"/><path d="M34.613 23.086h5.945v9.26h-5.945v-9.26zm-25.167.0h5.945v9.26H9.446v-9.26z" fill="#74c6ff"/></svg>
